X:1
T:Salut d'amour
T:Edward Elgar 
T:Salut d'amour
T:Love's Greetings, Op. 12
C:Edward Elgar
%%score 1 { ( 2 5 8 ) | ( 3 4 6 7 ) }
L:1/8
Q:1/4=56
M:2/4
K:E
V:1 treble transpose=-2 nm="B♭ Clarinet" snm="B♭ Cl."
V:2 treble nm="Piano"
V:5 treble 
V:8 treble 
V:3 bass 
V:4 bass 
V:6 bass 
V:7 bass 
V:1
[K:F#]"^Andantino" z4 | z4 |:"_dolce"!p! (v!4!a2 c!4!a) |"_legatiss." (gf)ve!<(!(uf | %4
 .!3!b2)!<)! !tenuto!vb2 |!>(! (ub2 !1!c)!>)! z | (a2 ^^c!4!a) | (gf)e!<(!(f | %8
 !2!g2)!<)! !tenuto!g2 |!>(! (g3 !2!^^g)!>)! | (!3!a2 !1!^c"_cresc."!4!a) | (gf)e!<(!(f!<)! | %12
 .d'2) !>!d'2 |!>(! (d'2 !tenuto!c'!>)!!tenuto!!2!b) |!p! (a2 !tenuto!!4!g!tenuto!f) | %15
"_dolciss."!<(!{/f} (d2 !1!e2)!<)! |1!<(! f4- | f2!<)!!>(! !1!c2!>)! :|2"_dim."!>(! f4- | f4!>)! || %20
"^A"!pp!{/f} ((u=a2 g)!tenuto!!3!f) | ((=d2 =e)!tenuto!!2!f) | ((g2 f)!tenuto!=e) | %23
 (!1!c2 =d!1!=e) |"_poco cresc." (f2 g=a) | (b2 c'!1!=d') |!<(! (=e'2!<)!"_ten."!>(! !2!g'f')!>)! | %27
!>(! (!2!=e'3!>)! !3!=d') |!p! (c'2"_cresc. molto" !3!b=a) | (!0!f2 g=a) | %30
{/=a} (!2!c'b) !tenuto!a!tenuto!g |"_dim." (^e2 !tenuto!f!tenuto!g) |!p! (=a2 bc') | %33
"_poco rit."!>(! (=d'2!>)!!pp! !fermata!!3!=a'>g') |"^B""^a tempo" (f'4 | !2!c'4) | !1!!0![bf'']4 | %37
 !2!!0![c'c'']4 | (!0!f'4 |!<(! !2!c'4) | !2!d'4-!<)! |"_rit."!f!!>(! (d'2 !2!c'b)!>)! | %42
"^C"!p!"^a tempo" (!4!a2 ca) | (gf)!tenuto!e!<(!(f | .b2)!<)! !tenuto!b2 |!>(! (b2 c)!>)! z | %46
 (a2 ^^ca) | (gf)!tenuto!e!<(!(f | g2)!<)! !tenuto!g2 |!>(! (g3 ^^g)!>)! | (a2 ca) | %51
 (gf)!tenuto!e!<(!(!1!f | d'2)!<)! !tenuto!!1!d'2 |"_dim." (d'2 !1!e'!2!f') | %54
"^D""_dolciss."!p! (!4!b' !4!g'2 f') | (!tenuto!=e'!tenuto!=d')!<(! (!1!g>!3!^d')!<)! | %56
 (d' c'2"_cresc." a) | (!tenuto!g!tenuto!f)!<(! (!1!c>=d!<)! |!ff! !0!!2!b)"_string." (v!1!g2 f) | %59
 (!tenuto!=e!tenuto!=d)!<(! (G>!<)!!4!^d) |"^ten." (d2!>(! c!3!A)!>)! | %61
 (GF)!p! (uC>"^accel. e cresc."^^C) |"^E" (DA,B,^C) | (D"^IV"!4!BAG) |!<(! (F^^CDE)!<)! | %65
"^III" (F[Q:1/4=52]"_rit."!4!f)(!>!!3!e!3!d) | %66
!<(! !tenuto!c"_IV"!tenuto!!1!E!<)!!>(!(!3!G!3!F)!>)! | %67
!<(! (vE!4!c)!<)!!ff!!>(! (!fermata!c>!4!A)!>)! |!p!"^rit. molto" (A2 G2 | D2 E2) | %70
"^F"[Q:1/4=54]"^Tempo pìu lento"!pp!!<(! (F4-!<)! | F2"_III" !1!A!1!c) |!<(! (!2!^^c2 !1!d2 | %73
 !2!^^d2 !2!e2)!<)! |!<(! (!3!f4-!<)! | f2"_II" !1!a!1!c') |"_poco rit."!>(! (!2!^^c'2 !2!d'2 | %77
 !3!^^d'2!>)! !3!e'2) |"^G""^a tempo""^1" u!0!f'4- |"_2""_sempre dim" f'4- |"_3" f'4- |"_4" f'4- | %82
"_5" vf'4- |"_6" f'4- |"_7" !fermata!f'4- | f'2 !fermata!z2 |] %86
V:2
!mf! z!>(! (!tenuto![B,EG]2 .[B,EG]) | z (!tenuto![B,EG]2!>)! .[B,EG]) |: %2
!pp! z (!tenuto![B,EG]2 .[B,EG]) | z (!tenuto![B,EB]2 .[B,EB]) |"^segue" z [A,EA]2 .[A,EA] | %5
 z [B,DA]2 .[B,DA] | z [G,EG]2 .[G,FG] |!<(! z [CEG]2 .[B,EG]!<)! | z [B,EF]2 .[^A,EF] | %9
!>(! z"^ten." ([B,DB]2 .[B,D=A])!>)! | z [B,EG]2"_cresc." .[B,EG] | z [B,EB]2 .[B,EB] | %12
!<(! z [CEc]2 .[C^EBc]!<)! | z!>(! c2 c!>)! |!p! ([=EG=e]2"_dol." [Fc]A) | %15
!>(! ([Ac]2!>)!"_dim." [GB][FA]) |1!pp! ([EG]2"_rit." [CEA]2 | [C=G^A]2 [B,FB]2) :|2 %18
!pp! [EG]2"_rit." ([B,EG]2 | [=CFA]2 [^C=G^A]2 ||!ppp! [=D=GB]) ([DG=d]2 .[DG] | %21
 [E=G=c] [EGc]2 .[EGc] | [=DF=c] [DFc]2 .[DF] | [=DFB] [DFB]2 .[DFB] | [=CEB] [CEA]2 .[CEA] | %25
 [=CEA]"_cresc." [C=DA]2 .[DA] |!<(! A =G2 .G!<)! | =G F2 .E |!<(! [B,=D]) [B,DB]2 .[B,^DB] | %29
 [B,EB] [B,EB]2 .[B,EB]!<)! |!f! [EA=ce] [EAce]2 .[EAce] |!>(! [^DAB^d] [DABd]2 .[DABd]!>)! | %32
"_dim." [E=GBe] [EBe]2"_colla parte" .[EBe] | [E=G=ce] [EGce]2 .[DABd] | (e2 ^dc | B2 ^AB | %36
 c2 =AG | F2) (^EF | A2!<(! ^EF | A2!<)!!>(! ^EF!>)! | A2) (^E!<(!F!<)! |"_rit." =e2!>(! dc!>)! | %42
!p! B4) | z [B,E]2 .[B,E] |"_dolce" ([Aa]2 =c[Aa]) | ([Gg][Ff])!tenuto![^E^e]!tenuto![Ff] | %46
 [Gg]!p! !tenuto![EG]2 .[FG] | z [EG]2 .[EG] |!<(!{/F} (f2 F!<)!e) | %49
 (dc)!>(!!tenuto!B!tenuto!A!>)! | G3 z | z [B,EB]2 .[^B,E^B] |"_cresc." (c2!<(! Cc!<)! | %53
!>(! (B!>)!!>(! A3))!>)! |!p! z [=CEA][CEA][CEA] | [A,EA][A,EA] [B,DF]"_cresc."[B,DF] | %56
 z [B,E][B,E][B,E] | [B,E]"_string."[B,E]!<(! z [B,E]!<)! | [A,=CEA][A,CEA][A,CEA][A,CEA] | %59
 [A,EA][A,EA]!<(! [B,DF][B,DF]!<)! | z [B,E]!>(![B,EB][B,EG] | %61
 (F!>)!E) z"_accel."[I:staff +1] .[E,E] |[I:staff -1] x4 | %63
 x!<(![I:staff +1] .[F,A,C][I:staff -1].F.[CFA]!<)! | z .[G,=EG] z .[G,CG] |!f!"_rit." [C=G]4 | %66
 !tenuto![B,F]2 !tenuto![B,E]2 | D2!>(! !tenuto!!fermata!=D2!>)! |!pp!"_colla parte" C4- | %69
!>(! C2!>)! ^D2 |!pp!{/E} (g2 Bg | fed)!<(!(e | a2)!<)! !tenuto!a2 |!>(! (a2 g!>)!f) | %74
!ppp!{/e} (G2 B,G | FED)!<(!(E | A2)!<)! !tenuto!A2 | (A2!>(! GF | E)!>)! ([B,E]2 [B,E] | %79
 [EG]!<(! [EG]2 [GB]!<)! | e2) z2 |!pp! !arpeggio!.[GBeg]2 z2 |"_dim."!>(! !tenuto!E4- | %83
 !tenuto!E4 | !fermata!E4- | E2!>)! !fermata!z2 |] %86
V:3
 z (!tenuto![B,,E,]2 .[B,,E,]) | z (!tenuto![B,,E,]2 .[B,,E,]) |: z [B,,E,]2 .[B,,E,] | z E,2 .E, | %4
 z F,2 .F, | z F,2 .F, | ([E,,E,]2 [D,,D,]2) | [C,,C,-]4 | C,4 | B,,3 z | [E,,E,]4 | [G,,G,]4 | %12
 ([A,,A,]2 [G,,G,]2) |!ped! z [F,C]2 .[F,C]!ped-up! | %14
!ped! z!<(! !tenuto![G,B,]!tenuto![A,C]!<)!!tenuto![CE] | z !>!B,2!ped-up! B,- |1!<(! B,2 x2!<)! | %17
!>(! x4!>)! :|2 B,2 x2 | x4 || z B,2 .B, | A, A,2 .A, | A, A,2 .A, | =G, G,2 .G, | =G, G,2 .G, | %25
 =G, F,2 .=C | B,2 _B,2 | A, A,2 F, | [=D,=G,] [D,G,]2 .[^D,G,] | [E,=G,] [E,G,]2 .[E,G,] | %30
!ped! z [A,=C]2 .[A,C]!ped-up! |!ped! z [A,B,]2 [A,B,]!ped-up! | z [=G,B,]2 .[G,B,] | %33
!pp! z [=G,=C]2 [A,B,] |"^dolcissimo" (^G,4 | A,4 | G,4 | A,4) | z [=C,F,]2 .[C,F,] | z F,2 F, | %40
 z [C,F,]2 .[C,F,] |!ped! z!>(! [A,B,]2 [A,B,]!ped-up!!>)! | z G,2 .G, | z E,2 .E, | %44
!ped! z [F,A,E]2 .[F,A,E]!ped-up! | z [A,B,]2 [A,B,] | z G,2 .G, | z G,2 .B, | z [^A,E]2 .[A,C] | %49
!ped! z [=A,B,]2 .[A,B,]!ped-up! | z E,2 .E, | z E,2 .E, | ([A,,A,]2 [G,,G,]2 | [F,,F,]2) z2 | %54
 [F,,F,]4- | [F,,F,]2 ([B,,B,][A,,A,]) | [G,,G,]4- | [G,,G,]2 [G,,,G,,]2 | [F,,,F,,]4- | %59
 [F,,,F,,]2 [B,,,B,,][A,,,A,,] | [G,,,G,,]4 | [C,,C,]2!p! .[G,,,G,,] z | z .[E,A,C] z .[^E,B,C] | %63
 z x [A,C] x | [C,,C,] z [B,,,B,,] z | =G,4 | F,2 E,2 | [D,A,]2 !fermata!=D,2 | [C,A,]4 | A,4 | %70
!ped! z [E,B,]2 [E,B,]!ped-up! | z [B,E]2 [B,E] | z [A,E]2 [A,E] | z [A,B,F]2 [A,B,] | %74
 z [B,,E,]2 [B,,E,] | z [E,B,]2 [E,B,] | z [F,A,]2 [F,A,] | z [F,A,B,]2 [A,B,] | %78
!ped! G, G,2 G,!ped-up! | B, B,2 x | x2 x2 |!ped! .[E,B,E]2 z2!ped-up! | [E,G,]4 | [E,G,]4 | %84
 !fermata![E,G,]4- | [E,G,]2 !fermata!z2 |] %86
V:4
 E,,4 | E,,4 |: E,,4 | G,,4 | F,,4 | B,,4 | x4 | x4 | F,,4 | x4 | x4 | x4 | x4 | F,,4 | %14
 [B,,,B,,]4- | [B,,,B,,] z B,, z |1 E,, E,2 E,- | E,.E,.D,.B,, :|2 E,!<(! E,2 E,- | %19
 E, E,2 .E,!<)! || =D,4 | =D,4 | =D,4 | =D,4 | =D,4 | =D,4 | x4 | x4 | x4 | x4 | x4 | x4 | x4 | %33
 x4 | x4 | x4 | x4 | x4 | x4 | x4 | x4 | x4 | x4 | x4 | x4 | x4 | x4 | x4 | x4 | x4 | x4 | x4 | %52
 x4 | x4 | x4 | x4 | x4 | x4 | x4 | x4 | x4 | x4 | x4 | x4 | x4 | x4 | x4 | x4 | x4 | x4 | x4 | %71
 x4 | x4 | x4 | x4 | x4 | x4 | x4 | x4 | x4 | x4 | x4 | x4 | x4 | x4 | x4 |] %86
V:5
 x4 | x4 |: x4 | x4 | x4 | x4 | x4 | x4 | x4 | x4 | x4 | x4 | x4 | x ([Aa][Gg][Ff]) | x4 | x4 |1 %16
 x4 | x4 :|2 x4 | x4 || x4 | x4 | x4 | x4 | x4 | x4 | =D2 ^C2 | =C C2 .A, | x4 | x4 | x4 | x4 | %32
 x4 | x4 | z [E^G]2 .[EG] | z [DF]2 .[DF] | z [CE]2 [CE]- | [CE] [B,D]2 .[B,D] | %38
 z [A,=E]2 .[A,=E] | z [A,B,]2 [A,B,] | z [A,^C]2 .[A,C] | z F2 .D | z [B,E]2 .[B,E] | x4 | x4 | %45
 x4 | x4 | x4 | x4 | z D2 .D | z [B,E]2 .[B,E] | x4 | z E z ^E | z [CF]2 .[CF] | x4 | x4 | x4 | %57
 x4 | x4 | x4 | x4 | [G,C]2 x2 | x4 | x4 | x4 | x4 | x4 | x4 | x4 | x4 | x4 | x4 | x4 | x4 | x4 | %75
 x4 | z E2"_poco rit." E | x4 | x4 | x3 E | [GB]2 x2 | x4 | x4 | x4 | x4 | x4 |] %86
V:6
 x4 | x4 |: x4 | x4 | x4 | x4 | x4 | x4 | x4 | x4 | x4 | x4 | x4 | x4 | x4 | x4 |1 x4 | x4 :|2 x4 | %19
 x4 || x4 | x4 | x4 | x4 | x4 | x4 | (=D,2 =D,,2) | (=D,2 =D,,2) | =G,,4 | =G,,4 | [F,,F,]4 | %31
 B,,4 | B,,4 | B,,4 | B,,4- | B,,4 | B,,4- | B,,4 | F,,4 | B,,4 | F,,4 | B,,,4 | E,,4 | G,,4 | %44
 [F,,F,]4 | B,,4 | (E,,2 D,,2 | C,,4) | F,,4 | [B,,,B,,]4 | E,,4 | G,,4 | x4 | x4 | x4 | x4 | x4 | %57
 x4 | x4 | x4 | x4 | x4 | .[A,,,A,,] z .[G,,,G,,] z | [F,,,F,,]4 | x4 | [^A,,,^A,,]4 | %66
 [=A,,,=A,,]2 [^G,,,^G,,]2 | [F,,,F,,]2 [^E,,,^E,,]2 | [F,,,F,,]4 | [B,,,B,,]4 | E,,4 | G,,4 | %72
 F,4 | B,,4 | E,,4 | G,,4 | F,,4 | B,,4 | E,,4 | x4 | x4 | x4 | (E,,2 B,,2 | E,,2 B,,2 | E,,,4-) | %85
 E,,,2 x2 |] %86
V:7
 x4 | x4 |: x4 | x4 | x4 | x4 | x4 | x4 | x4 | x4 | x4 | x4 | x4 | x4 | x4 | x4 |1 x4 | x4 :|2 x4 | %19
 x4 || x4 | x4 | x4 | x4 | x4 | x4 | =D,4 | =D,4 | x4 | x4 | x4 | x4 | x4 | x4 | x4 | x4 | x4 | %37
 x4 | x4 | x4 | x4 | x4 | x4 | x4 | x4 | x4 | x4 | x4 | x4 | x4 | x4 | x4 | x4 | x4 | x4 | x4 | %56
 x4 | x4 | x4 | x4 | x4 | x4 | x4 | x4 | x4 | x4 | x4 | x2 (G,>B,) | x4 | x4 | x4 | x4 | x4 | x4 | %74
 x4 | x4 | x4 | x4 | x4 | x4 | x4 | x4 | x2 !>!B,,2- | B,,2 !>!B,,2- | B,,4- | B,,2 x2 |] %86
V:8
 x4 | x4 |: x4 | x4 | x4 | x4 | x4 | x4 | x4 | x4 | x4 | x4 | x4 | x4 | x4 | x4 |1 x4 | x4 :|2 x4 | %19
 x4 || x4 | x4 | x4 | x4 | x4 | x4 | x4 | x4 | x4 | x4 | x4 | x4 | x4 | x4 | x4 | x4 | x4 | x4 | %38
 x4 | x4 | x4 | x4 | x4 | x4 | x4 | x4 | x4 | x4 | x/4x7/4 x2 | x4 | x4 | x4 | x4 | x4 | x4 | x4 | %56
 x4 | x4 | x4 | x4 | x4 | x4 | x4 | x4 | x4 | x4 | x4 | x4 | x4 | G2 F2 | x4 | x4 | x4 | x4 | x4 | %75
 x4 | x4 | x4 | x4 | x4 | x4 | x4 | x4 | x4 | x4 | x4 |] %86

